X:1
T:l'Homme \`a deux femmes #1
C:from Richard Forest
K:D
M:4/4
   AB | AGFE D2dd | fded fdAB | AGFE D2dd | fdec d2 :|
(3ABc | d2fd adfd | cdef gefe | d2fd adfd | cdeg fdec ||
   y4 | d2fd adfd | cdef gefe | (3agf ge fded | cABc d2 |]
%%text May be played as 24 or 32 bars.
